X:7822
T:Ur maligorn - En Dro
O:england
C:Y. Dour 12
M:4/4
L:1/8
K:C
e|e2d2c3d|e2f2d3e|e2d2c3d|e2f2d3:|\
|:c|c2e2g3e|f2d2e3c|c2e2g2gf|d2B2c3:|


